X:1
T:Musical Offering Canon a 4 (A = 415 Hz)
T:BWV 1079
T:J. S. Bach
%%score { 1 | 2 } { 3 | 4 }
L:1/8
M:4/4
K:A
V:1  nm="Harp"
V:2  
V:3  nm="Harp"
V:4  
V:1
 z2 FG ABcd | =F2 z2 z2 c2- | c=c=G^A B4- | B^AF=G =A4- | AG=G^G =GF=F^F | =F^DC=D CFGB | %6
 Ac=f^f GdcB | A/=G/F/=F/ ^F/f/e/d/ c/B/A/G/ F2 | z FAB ce^df | e^d/c/ =c2 z =d^ce | %10
 dc/B/ ^A2 z c=c^d | cB^Ac BA B2- | BF=F^F GC c2- | c2 BA B2 AG | A/B/A/G/ F2- FGAB | cdcB AGFA | %16
 G4- GF=FG | F4- FE^DF | E2 z E B2 z d | c2 z F =F2 z C | F2 D2 B,2 C2 | Ff/g/ ab c'3 b/a/ | %22
 g=f^fg c2 z2 | z ^def g4 | z c^d=f ^f4 | z2 c2 d2 G2 | g/a/ b2 a bg =f2 | f2 z A d2 z =F | %28
 F2 z2 z4 | z8 | z8 | z8 | z8 | z8 | z8 | z8 | z8 | z8 | z8 | z8 | z8 | z8 | z8 | z8 | z8 | z8 | %46
 z8 | z8 | z8 | z8 |] %50
V:2
 z8 | z8 | z8 | z8 | z8 | z8 | z8 | z2 FG ABcd | =F2 z2 z2 c2- | c=c=G^A B4- | B^AF=G =A4- | %11
 AG=G^G =GF=F^F | =F^DC=D CFGB | Ac=f^f GdcB | A/=G/F/=F/ ^F/f/e/d/ c/B/A/G/ F2 | z FAB ce^df | %16
 e^d/c/ =c2 z =d^ce | dc/B/ ^A2 z c=c^d | cB^Ac BA B2- | BF=F^F GC c2- | c2 BA B2 AG | %21
 A/B/A/G/ F2- FGAB | cdcB AGFA | G4- GF=FG | F4- FE^DF | E2 z E B2 z d | c2 z F =F2 z C | %27
 F2 D2 B,2 C2 | Ff/g/ ab c'3 b/a/ | g=f^fg c2 z2 | z ^def g4 | z c^d=f ^f4 | z2 c2 d2 G2 | %33
 g/a/ b2 a bg =f2 | f2 z A d2 z =F | F2 z2 z4 | z8 | z8 | z8 | z8 | z8 | z8 | z8 | z8 | z8 | z8 | %46
 z8 | z8 | z8 | z8 |] %50
V:3
 z8 | z8 | z8 | z8 | z8 | z8 | z8 | z8 | z8 | z8 | z8 | z8 | z8 | z8 | z2 FG ABcd | =F2 z2 z2 c2- | %16
 c=c=G^A B4- | B^AF=G =A4- | AG=G^G =GF=F^F | =F^DC=D CFGB | Ac=f^f GdcB | %21
 A/=G/F/=F/ ^F/f/e/d/ c/B/A/G/ F2 | z FAB ce^df | e^d/c/ =c2 z =d^ce | dc/B/ ^A2 z c=c^d | %25
 cB^Ac BA B2- | BF=F^F GC c2- | c2 BA B2 AG | A/B/A/G/ F2- FGAB | cdcB AGFA | G4- GF=FG | %31
 F4- FE^DF | E2 z E B2 z d | c2 z F =F2 z C | F2 D2 B,2 C2 | Ff/g/ ab c'3 b/a/ | g=f^fg c2 z2 | %37
 z ^def g4 | z c^d=f ^f4 | z2 c2 d2 G2 | g/a/ b2 a bg =f2 | f2 z A d2 z =F | F2 z2 z4 | z8 | z8 | %45
 z8 | z8 | z8 | z8 | z8 |] %50
V:4
 z8 | z8 | z8 | z8 | z8 | z8 | z8 | z8 | z8 | z8 | z8 | z8 | z8 | z8 | z8 | z8 | z8 | z8 | z8 | %19
 z8 | z8 | z2 FG ABcd | =F2 z2 z2 c2- | c=c=G^A B4- | B^AF=G =A4- | AG=G^G =GF=F^F | =F^DC=D CFGB | %27
 Ac=f^f GdcB | A/=G/F/=F/ ^F/f/e/d/ c/B/A/G/ F2 | z FAB ce^df | e^d/c/ =c2 z =d^ce | %31
 dc/B/ ^A2 z c=c^d | cB^Ac BA B2- | BF=F^F GC c2- | c2 BA B2 AG | A/B/A/G/ F2- FGAB | cdcB AGFA | %37
 G4- GF=FG | F4- FE^DF | E2 z E B2 z d | c2 z F =F2 z C | F2 D2 B,2 C2 | Ff/g/ ab c'3 b/a/ | %43
 g=f^fg c2 z2 | z ^def g4 | z c^d=f ^f4 | z2 c2 d2 G2 | g/a/ b2 a bg =f2 | f2 z A d2 z =F | %49
 F2 z2 z4 |] %50

